svg/24/badge--filled.svg

<svg width="24" height="24" viewBox="0 0 24 24" fill="currentColor" xmlns="http://www.w3.org/2000/svg"><path fill-rule="evenodd" clip-rule="evenodd" d="M13 2.18494C12.3812 1.82768 11.6188 1.82768 11 2.18494L4 6.22639C3.3812 6.58366 3 7.24391 3 7.95844V16.0413C3 16.7559 3.3812 17.4161 4 17.7734L11 21.8148C11.6188 22.1721 12.3812 22.1721 13 21.8148L20 17.7734C20.6188 17.4161 21 16.7559 21 16.0413V7.95844C21 7.24391 20.6188 6.58366 20 6.22639L13 2.18494ZM12.8967 6.81691C12.5298 6.07367 11.47 6.07367 11.1032 6.81691L9.94268 9.16837L7.34769 9.54544C6.52747 9.66462 6.19996 10.6726 6.79348 11.2511L8.67123 13.0815L8.22795 15.666C8.08784 16.4829 8.94527 17.1059 9.6789 16.7202L11.9999 15.4999L14.3209 16.7202C15.0546 17.1059 15.912 16.4829 15.7719 15.666L15.3286 13.0815L17.2064 11.2511C17.7999 10.6726 17.4724 9.66462 16.6522 9.54544L14.0572 9.16837L12.8967 6.81691Z"/></svg>

<svg xmlns="http://www.w3.org/2000/svg" width="24" height="24" fill="currentColor" viewBox="0 0 24 24">
  <path fill-rule="evenodd" d="M13 2.185a2 2 0 0 0-2 0L4 6.226a2 2 0 0 0-1 1.732v8.083a2 2 0 0 0 1 1.732l7 4.042a2 2 0 0 0 2 0l7-4.042a2 2 0 0 0 1-1.732V7.958a2 2 0 0 0-1-1.732l-7-4.041Zm-.103 4.632a1 1 0 0 0-1.794 0l-1.16 2.351-2.595.377a1 1 0 0 0-.555 1.706l1.878 1.83-.443 2.585a1 1 0 0 0 1.45 1.054L12 15.5l2.32 1.22a1 1 0 0 0 1.452-1.054l-.443-2.585 1.877-1.83a1 1 0 0 0-.554-1.706l-2.595-.377-1.16-2.351Z" clip-rule="evenodd"/>
</svg>
